img/tab-icons/masking-active.svg

<svg width="22" height="18" viewBox="0 0 22 18" fill="none" xmlns="http://www.w3.org/2000/svg">
<rect width="22" height="18" fill="#41FFB4"/>
<path d="M8.67053 10.9993V9.9913H6.54053V9.4033L8.64053 6.5293H9.34253V9.4033H9.96053V9.9913H9.34253V10.9993H8.67053ZM7.06253 9.6613L6.94853 9.4033H8.67053V7.0933L8.86253 7.1533L7.06253 9.6613ZM10.7614 10.9993V10.2193H11.4514V10.9993H10.7614ZM10.7614 8.5333V7.7533H11.4514V8.5333H10.7614ZM13.7835 11.0713C13.5435 11.0713 13.3175 11.0273 13.1055 10.9393C12.8975 10.8513 12.7175 10.7273 12.5655 10.5673C12.4175 10.4073 12.3115 10.2193 12.2475 10.0033L12.8475 9.7753C12.9275 9.9873 13.0495 10.1513 13.2135 10.2673C13.3775 10.3833 13.5675 10.4413 13.7835 10.4413C13.9595 10.4413 14.1115 10.4073 14.2395 10.3393C14.3715 10.2713 14.4735 10.1753 14.5455 10.0513C14.6215 9.9273 14.6595 9.7773 14.6595 9.6013C14.6595 9.4293 14.6215 9.2813 14.5455 9.1573C14.4735 9.0333 14.3715 8.9393 14.2395 8.8753C14.1115 8.8113 13.9595 8.7793 13.7835 8.7793C13.7115 8.7793 13.6375 8.7853 13.5615 8.7973C13.4895 8.8093 13.4255 8.8253 13.3695 8.8453L13.2135 8.5153L14.3895 7.1293H12.4875V6.5293H15.1815V7.0993L14.0295 8.4793L14.0115 8.2513C14.2795 8.2553 14.5155 8.3153 14.7195 8.4313C14.9235 8.5433 15.0815 8.6993 15.1935 8.8993C15.3095 9.0953 15.3675 9.3233 15.3675 9.5833C15.3675 9.8633 15.2995 10.1173 15.1635 10.3453C15.0275 10.5693 14.8395 10.7473 14.5995 10.8793C14.3635 11.0073 14.0915 11.0713 13.7835 11.0713Z" fill="#232326"/>
<path d="M19.25 7.5C18.84 7.5 18.5 7.16 18.5 6.75V3.5H15.25C14.84 3.5 14.5 3.16 14.5 2.75C14.5 2.34 14.84 2 15.25 2H19.25C19.66 2 20 2.34 20 2.75V6.75C20 7.16 19.66 7.5 19.25 7.5Z" fill="#232326"/>
<path d="M6.75 16H2.75C2.34 16 2 15.66 2 15.25V11.25C2 10.84 2.34 10.5 2.75 10.5C3.16 10.5 3.5 10.84 3.5 11.25V14.5H6.75C7.16 14.5 7.5 14.84 7.5 15.25C7.5 15.66 7.16 16 6.75 16Z" fill="#232326"/>
<path d="M2.75 7.5C2.34 7.5 2 7.16 2 6.75V2.75C2 2.34 2.34 2 2.75 2H6.75C7.16 2 7.5 2.34 7.5 2.75C7.5 3.16 7.16 3.5 6.75 3.5H3.5V6.75C3.5 7.16 3.16 7.5 2.75 7.5Z" fill="#232326"/>
<path d="M19.25 16H15.25C14.84 16 14.5 15.66 14.5 15.25C14.5 14.84 14.84 14.5 15.25 14.5H18.5V11.25C18.5 10.84 18.84 10.5 19.25 10.5C19.66 10.5 20 10.84 20 11.25V15.25C20 15.66 19.66 16 19.25 16Z" fill="#232326"/>
</svg>

<svg width="22" height="18" fill="none" xmlns="http://www.w3.org/2000/svg"><path fill="#41FFB4" d="M0 0h22v18H0z"/><path d="M8.67 11V9.99H6.54v-.588l2.1-2.874h.703v2.874h.618v.588h-.618V11H8.67zM7.064 9.66l-.114-.258H8.67v-2.31l.192.06-1.8 2.508zM10.76 11v-.78h.69V11h-.69zm0-2.466v-.78h.69v.78h-.69zm3.023 2.538a1.75 1.75 0 0 1-.679-.132 1.591 1.591 0 0 1-.54-.372 1.407 1.407 0 0 1-.317-.564l.6-.228c.08.212.201.376.365.492a.962.962 0 0 0 .57.174.96.96 0 0 0 .457-.102.734.734 0 0 0 .306-.288.845.845 0 0 0 .114-.45.833.833 0 0 0-.114-.444.697.697 0 0 0-.306-.282 1.009 1.009 0 0 0-.457-.096c-.072 0-.146.006-.221.018a1.12 1.12 0 0 0-.192.048l-.156-.33 1.175-1.386h-1.901v-.6h2.694v.57L14.03 8.48l-.018-.228c.268.004.503.064.707.18.205.112.363.268.475.468.115.196.173.424.173.684 0 .28-.068.534-.204.762a1.48 1.48 0 0 1-.563.534 1.685 1.685 0 0 1-.816.192zM19.25 7.5c-.41 0-.75-.34-.75-.75V3.5h-3.25c-.41 0-.75-.34-.75-.75s.34-.75.75-.75h4c.41 0 .75.34.75.75v4c0 .41-.34.75-.75.75zM6.75 16h-4c-.41 0-.75-.34-.75-.75v-4c0-.41.34-.75.75-.75s.75.34.75.75v3.25h3.25c.41 0 .75.34.75.75s-.34.75-.75.75zM2.75 7.5c-.41 0-.75-.34-.75-.75v-4c0-.41.34-.75.75-.75h4c.41 0 .75.34.75.75s-.34.75-.75.75H3.5v3.25c0 .41-.34.75-.75.75zM19.25 16h-4c-.41 0-.75-.34-.75-.75s.34-.75.75-.75h3.25v-3.25c0-.41.34-.75.75-.75s.75.34.75.75v4c0 .41-.34.75-.75.75z" fill="#232326"/></svg>
